source/img/svg/graphic-3.svg

<svg width="310" height="150" viewBox="0 0 310 150" fill="none" xmlns="http://www.w3.org/2000/svg">
<rect width="310" height="150" rx="10" fill="white"/>
<line opacity="0.2" x1="38" y1="38.5" x2="278" y2="38.5" stroke="#0A3D76"/>
<line opacity="0.2" x1="38" y1="69.5" x2="278" y2="69.5" stroke="#0A3D76"/>
<line opacity="0.2" x1="38" y1="100.5" x2="278" y2="100.5" stroke="#0A3D76"/>
<line x1="38" y1="131.5" x2="278" y2="131.5" stroke="#0A3D76"/>
<line x1="35" y1="38.5" x2="37" y2="38.5" stroke="#0A3D76"/>
<line x1="35" y1="69.5" x2="37" y2="69.5" stroke="#0A3D76"/>
<line x1="35" y1="100.5" x2="37" y2="100.5" stroke="#0A3D76"/>
<line x1="37.5" y1="132" x2="37.5" y2="6" stroke="#0A3D76"/>
<path d="M26.9629 95.4629V96.3828H26.7637C25.9199 96.3984 25.248 96.6484 24.748 97.1328C24.248 97.6172 23.959 98.2988 23.8809 99.1777C24.3301 98.6621 24.9434 98.4043 25.7207 98.4043C26.4629 98.4043 27.0547 98.666 27.4961 99.1895C27.9414 99.7129 28.1641 100.389 28.1641 101.217C28.1641 102.096 27.9238 102.799 27.4434 103.326C26.9668 103.854 26.3262 104.117 25.5215 104.117C24.7051 104.117 24.043 103.805 23.5352 103.18C23.0273 102.551 22.7734 101.742 22.7734 100.754V100.338C22.7734 98.7676 23.1074 97.5684 23.7754 96.7402C24.4473 95.9082 25.4453 95.4824 26.7695 95.4629H26.9629ZM25.5391 99.3066C25.168 99.3066 24.8262 99.418 24.5137 99.6406C24.2012 99.8633 23.9844 100.143 23.8633 100.479V100.877C23.8633 101.58 24.0215 102.146 24.3379 102.576C24.6543 103.006 25.0488 103.221 25.5215 103.221C26.0098 103.221 26.3926 103.041 26.6699 102.682C26.9512 102.322 27.0918 101.852 27.0918 101.27C27.0918 100.684 26.9492 100.211 26.6641 99.8516C26.3828 99.4883 26.0078 99.3066 25.5391 99.3066Z" fill="#0A3D76"/>
<path d="M29.0586 137.361C29.0586 138.631 28.8418 139.574 28.4082 140.191C27.9746 140.809 27.2969 141.117 26.375 141.117C25.4648 141.117 24.791 140.816 24.3535 140.215C23.916 139.609 23.6895 138.707 23.6738 137.508V136.061C23.6738 134.807 23.8906 133.875 24.3242 133.266C24.7578 132.656 25.4375 132.352 26.3633 132.352C27.2812 132.352 27.957 132.646 28.3906 133.236C28.8242 133.822 29.0469 134.729 29.0586 135.955V137.361ZM27.9746 135.879C27.9746 134.961 27.8457 134.293 27.5879 133.875C27.3301 133.453 26.9219 133.242 26.3633 133.242C25.8086 133.242 25.4043 133.451 25.1504 133.869C24.8965 134.287 24.7656 134.93 24.7578 135.797V137.531C24.7578 138.453 24.8906 139.135 25.1562 139.576C25.4258 140.014 25.832 140.232 26.375 140.232C26.9102 140.232 27.3066 140.025 27.5645 139.611C27.8262 139.197 27.9629 138.545 27.9746 137.654V135.879Z" fill="#0A3D76"/>
<path d="M22.2715 72H21.1816V64.7754L18.9961 65.5781V64.5938L22.1016 63.4277H22.2715V72ZM31.0371 72H25.4473V71.2207L28.4004 67.9395C28.8379 67.4434 29.1387 67.041 29.3027 66.7324C29.4707 66.4199 29.5547 66.0977 29.5547 65.7656C29.5547 65.3203 29.4199 64.9551 29.1504 64.6699C28.8809 64.3848 28.5215 64.2422 28.0723 64.2422C27.5332 64.2422 27.1133 64.3965 26.8125 64.7051C26.5156 65.0098 26.3672 65.4355 26.3672 65.9824H25.2832C25.2832 65.1973 25.5352 64.5625 26.0391 64.0781C26.5469 63.5938 27.2246 63.3516 28.0723 63.3516C28.8652 63.3516 29.4922 63.5605 29.9531 63.9785C30.4141 64.3926 30.6445 64.9453 30.6445 65.6367C30.6445 66.4766 30.1094 67.4766 29.0391 68.6367L26.7539 71.1152H31.0371V72Z" fill="#0A3D76"/>
<path d="M22.2715 43H21.1816V35.7754L18.9961 36.5781V35.5938L22.1016 34.4277H22.2715V43ZM30.6211 36.6953C30.6211 37.1211 30.5078 37.5 30.2812 37.832C30.0586 38.1641 29.7559 38.4238 29.373 38.6113C29.8184 38.8027 30.1699 39.082 30.4277 39.4492C30.6895 39.8164 30.8203 40.2324 30.8203 40.6973C30.8203 41.4355 30.5703 42.0234 30.0703 42.4609C29.5742 42.8984 28.9199 43.1172 28.1074 43.1172C27.2871 43.1172 26.6289 42.8984 26.1328 42.4609C25.6406 42.0195 25.3945 41.4316 25.3945 40.6973C25.3945 40.2363 25.5195 39.8203 25.7695 39.4492C26.0234 39.0781 26.373 38.7969 26.8184 38.6055C26.4395 38.418 26.1406 38.1582 25.9219 37.8262C25.7031 37.4941 25.5938 37.1172 25.5938 36.6953C25.5938 35.9766 25.8242 35.4062 26.2852 34.9844C26.7461 34.5625 27.3535 34.3516 28.1074 34.3516C28.8574 34.3516 29.4629 34.5625 29.9238 34.9844C30.3887 35.4062 30.6211 35.9766 30.6211 36.6953ZM29.7363 40.6738C29.7363 40.1973 29.584 39.8086 29.2793 39.5078C28.9785 39.207 28.584 39.0566 28.0957 39.0566C27.6074 39.0566 27.2148 39.2051 26.918 39.502C26.625 39.7988 26.4785 40.1895 26.4785 40.6738C26.4785 41.1582 26.6211 41.5391 26.9062 41.8164C27.1953 42.0938 27.5957 42.2324 28.1074 42.2324C28.6152 42.2324 29.0137 42.0938 29.3027 41.8164C29.5918 41.5352 29.7363 41.1543 29.7363 40.6738ZM28.1074 35.2422C27.6816 35.2422 27.3359 35.375 27.0703 35.6406C26.8086 35.9023 26.6777 36.2598 26.6777 36.7129C26.6777 37.1465 26.8066 37.498 27.0645 37.7676C27.3262 38.0332 27.6738 38.166 28.1074 38.166C28.541 38.166 28.8867 38.0332 29.1445 37.7676C29.4062 37.498 29.5371 37.1465 29.5371 36.7129C29.5371 36.2793 29.4023 35.9258 29.1328 35.6523C28.8633 35.3789 28.5215 35.2422 28.1074 35.2422Z" fill="#0A3D76"/>
<line x1="82.5" y1="134" x2="82.5" y2="132" stroke="#0A3D76"/>
<path d="M83.2715 145H82.1816V137.775L79.9961 138.578V137.594L83.1016 136.428H83.2715V145Z" fill="#0A3D76"/>
<line x1="133.5" y1="134" x2="133.5" y2="132" stroke="#0A3D76"/>
<path d="M137.299 145H131.709V144.221L134.662 140.939C135.1 140.443 135.4 140.041 135.564 139.732C135.732 139.42 135.816 139.098 135.816 138.766C135.816 138.32 135.682 137.955 135.412 137.67C135.143 137.385 134.783 137.242 134.334 137.242C133.795 137.242 133.375 137.396 133.074 137.705C132.777 138.01 132.629 138.436 132.629 138.982H131.545C131.545 138.197 131.797 137.562 132.301 137.078C132.809 136.594 133.486 136.352 134.334 136.352C135.127 136.352 135.754 136.561 136.215 136.979C136.676 137.393 136.906 137.945 136.906 138.637C136.906 139.477 136.371 140.477 135.301 141.637L133.016 144.115H137.299V145Z" fill="#0A3D76"/>
<line x1="186.5" y1="134" x2="186.5" y2="132" stroke="#0A3D76"/>
<path d="M185.285 140.207H186.1C186.611 140.199 187.014 140.064 187.307 139.803C187.6 139.541 187.746 139.188 187.746 138.742C187.746 137.742 187.248 137.242 186.252 137.242C185.783 137.242 185.408 137.377 185.127 137.646C184.85 137.912 184.711 138.266 184.711 138.707H183.627C183.627 138.031 183.873 137.471 184.365 137.025C184.861 136.576 185.49 136.352 186.252 136.352C187.057 136.352 187.688 136.564 188.145 136.99C188.602 137.416 188.83 138.008 188.83 138.766C188.83 139.137 188.709 139.496 188.467 139.844C188.229 140.191 187.902 140.451 187.488 140.623C187.957 140.771 188.318 141.018 188.572 141.361C188.83 141.705 188.959 142.125 188.959 142.621C188.959 143.387 188.709 143.994 188.209 144.443C187.709 144.893 187.059 145.117 186.258 145.117C185.457 145.117 184.805 144.9 184.301 144.467C183.801 144.033 183.551 143.461 183.551 142.75H184.641C184.641 143.199 184.787 143.559 185.08 143.828C185.373 144.098 185.766 144.232 186.258 144.232C186.781 144.232 187.182 144.096 187.459 143.822C187.736 143.549 187.875 143.156 187.875 142.645C187.875 142.148 187.723 141.768 187.418 141.502C187.113 141.236 186.674 141.1 186.1 141.092H185.285V140.207Z" fill="#0A3D76"/>
<line x1="239.5" y1="134" x2="239.5" y2="132" stroke="#0A3D76"/>
<path d="M240.285 142.135H241.469V143.02H240.285V145H239.195V143.02H235.311V142.381L239.131 136.469H240.285V142.135ZM236.541 142.135H239.195V137.951L239.066 138.186L236.541 142.135Z" fill="#0A3D76"/>
<path d="M38.5 130.5L82.5 100.5L134 84L186.5 79.5L215.5 57L239.5 38" stroke="url(#paint0_linear)" stroke-width="2"/>
<circle cx="239.5" cy="37.5" r="2.5" fill="#A62E41"/>
<circle cx="186.5" cy="79.5" r="2.5" fill="#A62E41"/>
<circle cx="134.5" cy="83.5" r="2.5" fill="#A62E41"/>
<circle cx="38.5" cy="130.5" r="2.5" fill="#A62E41"/>
<circle cx="82.5" cy="100.5" r="2.5" fill="#A62E41"/>
<path d="M35 8.5L37.5 5L40 8.5" stroke="#0A3D76" stroke-linecap="round"/>
<path d="M275 129L278.5 131.5L275 134" stroke="#0A3D76" stroke-linecap="round"/>
<defs>
<linearGradient id="paint0_linear" x1="233.304" y1="84.25" x2="44.7709" y2="75.4538" gradientUnits="userSpaceOnUse">
<stop stop-color="#A62E41"/>
<stop offset="1" stop-color="#E13152"/>
</linearGradient>
</defs>
</svg>

<svg width="310" height="150" fill="none" xmlns="http://www.w3.org/2000/svg"><rect width="310" height="150" rx="10" fill="#fff"/><path opacity=".2" stroke="#0A3D76" d="M38 38.5h240m-240 31h240m-240 31h240"/><path stroke="#0A3D76" d="M38 131.5h240m-243-93h2m-2 31h2m-2 31h2m.5 31.5V6"/><path d="M26.963 95.463v.92h-.2c-.843.015-1.515.265-2.015.75-.5.484-.789 1.166-.867 2.045.45-.516 1.062-.774 1.84-.774.742 0 1.334.262 1.775.785.445.524.668 1.2.668 2.028 0 .879-.24 1.582-.72 2.109-.477.528-1.118.791-1.922.791-.817 0-1.479-.312-1.987-.937-.508-.629-.762-1.438-.762-2.426v-.416c0-1.57.334-2.77 1.002-3.598.672-.832 1.67-1.258 2.995-1.277h.193zm-1.424 3.844a1.73 1.73 0 00-1.025.334c-.313.222-.53.502-.65.838v.398c0 .703.157 1.269.474 1.699.316.43.71.645 1.183.645.489 0 .872-.18 1.149-.539.281-.36.422-.83.422-1.412 0-.586-.143-1.059-.428-1.418a1.351 1.351 0 00-1.125-.545zm3.52 38.054c0 1.27-.217 2.213-.65 2.83-.434.618-1.112.926-2.034.926-.91 0-1.584-.301-2.021-.902-.438-.606-.665-1.508-.68-2.707v-1.447c0-1.254.217-2.186.65-2.795.434-.61 1.113-.914 2.04-.914.917 0 1.593.294 2.027.884.433.586.656 1.493.668 2.719v1.406zm-1.084-1.482c0-.918-.13-1.586-.387-2.004-.258-.422-.666-.633-1.225-.633-.554 0-.959.209-1.213.627-.253.418-.384 1.061-.392 1.928v1.734c0 .922.133 1.604.398 2.045.27.438.676.656 1.219.656.535 0 .932-.207 1.19-.621.261-.414.398-1.066.41-1.957v-1.775zM22.271 72h-1.09v-7.225l-2.185.803v-.984l3.106-1.166h.17V72zm8.766 0h-5.59v-.78l2.953-3.28c.438-.497.739-.899.903-1.208.168-.312.252-.634.252-.966 0-.446-.135-.81-.405-1.096-.27-.285-.628-.428-1.078-.428-.539 0-.959.154-1.26.463-.296.305-.445.73-.445 1.277h-1.084c0-.785.252-1.42.756-1.904.508-.484 1.186-.726 2.033-.726.793 0 1.42.209 1.881.627.461.414.692.966.692 1.658 0 .84-.536 1.84-1.606 3l-2.285 2.478h4.283V72zm-8.766-29h-1.09v-7.225l-2.185.803v-.984l3.106-1.166h.17V43zm8.35-6.305c0 .426-.113.805-.34 1.137a2.269 2.269 0 01-.908.78c.445.19.797.47 1.055.837.261.367.392.783.392 1.248 0 .738-.25 1.326-.75 1.764-.496.437-1.15.656-1.963.656-.82 0-1.478-.219-1.974-.656-.492-.441-.738-1.03-.738-1.764 0-.46.125-.877.375-1.248a2.37 2.37 0 011.048-.843 2.236 2.236 0 01-.896-.78 2.01 2.01 0 01-.328-1.13c0-.72.23-1.29.691-1.712.461-.422 1.069-.632 1.822-.632.75 0 1.356.21 1.817.632.465.422.697.993.697 1.711zm-.885 3.979c0-.477-.152-.865-.457-1.166-.3-.301-.695-.451-1.183-.451-.489 0-.881.148-1.178.445-.293.297-.44.688-.44 1.172s.143.865.428 1.142c.29.278.69.416 1.201.416.508 0 .907-.138 1.196-.416.289-.28.433-.662.433-1.142zm-1.629-5.432c-.425 0-.771.133-1.037.399-.261.261-.392.619-.392 1.072 0 .434.129.785.386 1.055.262.265.61.398 1.043.398.434 0 .78-.133 1.038-.398.261-.27.392-.621.392-1.055 0-.434-.135-.787-.404-1.06-.27-.274-.611-.41-1.026-.41z" fill="#0A3D76"/><path stroke="#0A3D76" d="M82.5 134v-2"/><path d="M83.272 145h-1.09v-7.225l-2.186.803v-.984l3.106-1.166h.17V145z" fill="#0A3D76"/><path stroke="#0A3D76" d="M133.5 134v-2"/><path d="M137.299 145h-5.59v-.779l2.953-3.282c.438-.496.738-.898.902-1.207.168-.312.252-.634.252-.966 0-.446-.134-.811-.404-1.096-.269-.285-.629-.428-1.078-.428-.539 0-.959.154-1.26.463-.297.305-.445.731-.445 1.277h-1.084c0-.785.252-1.42.756-1.904.508-.484 1.185-.726 2.033-.726.793 0 1.42.209 1.881.627.461.414.691.966.691 1.658 0 .84-.535 1.84-1.605 3l-2.285 2.478h4.283V145z" fill="#0A3D76"/><path stroke="#0A3D76" d="M186.5 134v-2"/><path d="M185.285 140.207h.815c.511-.008.914-.143 1.207-.404.293-.262.439-.615.439-1.061 0-1-.498-1.5-1.494-1.5-.469 0-.844.135-1.125.404-.277.266-.416.62-.416 1.061h-1.084c0-.676.246-1.236.738-1.682.496-.449 1.125-.673 1.887-.673.805 0 1.436.212 1.893.638.457.426.685 1.018.685 1.776 0 .371-.121.73-.363 1.078a2.162 2.162 0 01-.979.779c.469.148.83.395 1.084.738.258.344.387.764.387 1.26 0 .766-.25 1.373-.75 1.822-.5.45-1.15.674-1.951.674-.801 0-1.453-.217-1.957-.65-.5-.434-.75-1.006-.75-1.717h1.09c0 .449.146.809.439 1.078.293.27.686.404 1.178.404.523 0 .924-.136 1.201-.41.277-.273.416-.666.416-1.177 0-.497-.152-.877-.457-1.143-.305-.266-.744-.402-1.318-.41h-.815v-.885z" fill="#0A3D76"/><path stroke="#0A3D76" d="M239.5 134v-2"/><path d="M240.285 142.135h1.184v.885h-1.184V145h-1.09v-1.98h-3.884v-.639l3.82-5.912h1.154v5.666zm-3.744 0h2.654v-4.184l-.129.235-2.525 3.949z" fill="#0A3D76"/><path d="M38.5 130.5l44-30L134 84l52.5-4.5 29-22.5 24-19" stroke="url(#paint0_linear)" stroke-width="2"/><circle cx="239.5" cy="37.5" r="2.5" fill="#A62E41"/><circle cx="186.5" cy="79.5" r="2.5" fill="#A62E41"/><circle cx="134.5" cy="83.5" r="2.5" fill="#A62E41"/><circle cx="38.5" cy="130.5" r="2.5" fill="#A62E41"/><circle cx="82.5" cy="100.5" r="2.5" fill="#A62E41"/><path d="M35 8.5L37.5 5 40 8.5M275 129l3.5 2.5-3.5 2.5" stroke="#0A3D76" stroke-linecap="round"/><defs><linearGradient id="paint0_linear" x1="233.304" y1="84.25" x2="44.771" y2="75.454" gradientUnits="userSpaceOnUse"><stop stop-color="#A62E41"/><stop offset="1" stop-color="#E13152"/></linearGradient></defs></svg>
